material/.icons/material/thumb-down-outline.svg

<svg xmlns="http://www.w3.org/2000/svg" viewBox="0 0 24 24"><path d="M19 15V3h4v12h-4M15 3a2 2 0 012 2v10c0 .55-.22 1.05-.59 1.41L9.83 23l-1.06-1.06c-.27-.27-.44-.64-.44-1.06l.03-.31.95-4.57H3a2 2 0 01-2-2v-2c0-.26.05-.5.14-.73l3.02-7.05C4.46 3.5 5.17 3 6 3h9m0 2H5.97L3 12v2h8.78l-1.13 5.32L15 14.97V5z"/></svg>

<?xml version="1.0" encoding="UTF-8"?><!DOCTYPE svg PUBLIC "-//W3C//DTD SVG 1.1//EN" "http://www.w3.org/Graphics/SVG/1.1/DTD/svg11.dtd"><svg xmlns="http://www.w3.org/2000/svg" xmlns:xlink="http://www.w3.org/1999/xlink" version="1.1" id="mdi-thumb-down-outline" width="24" height="24" viewBox="0 0 24 24"><path d="M19,15V3H23V15H19M15,3A2,2 0 0,1 17,5V15C17,15.55 16.78,16.05 16.41,16.41L9.83,23L8.77,21.94C8.5,21.67 8.33,21.3 8.33,20.88L8.36,20.57L9.31,16H3C1.89,16 1,15.1 1,14V12C1,11.74 1.05,11.5 1.14,11.27L4.16,4.22C4.46,3.5 5.17,3 6,3H15M15,5H5.97L3,12V14H11.78L10.65,19.32L15,14.97V5Z" /></svg>
